X: 3794
T: Björkö Polska
R: waltz
M: 3/4
K: Gminor
g2 d2 B2|BA/G/ ^FG AD|BA/B/ cB/c/ dB|AG ^F/G/A/F/ DD|g2 d2 B2|
BA/G/ ^FG AD|BA/B/ cB/c/ dB|AG ^F/G/A/F/ G2|1 G2:|2 G>D||
|:D[DB] D[DB] D[DB]|=E[Ec] E[Ec] E[Ec]|BA/B/ cB/c/ dB|AG ^F/G/A/F/ DD|
D[DB] D[DB] D[DB]|=E[Ec] E[Ec] E[Ec]|BA/B/ cB/c/ dB|AG ^F/G/A/F/ G2|1 G>D:|2 G2||

